casedrop/img/balance/images/sber.svg

<svg width="120" height="19" viewBox="0 0 120 19" fill="none" xmlns="http://www.w3.org/2000/svg">
<path d="M53.6565 5.80143L56.1571 3.93264H47.7832V15.1283H56.1571V13.258H50.1751V10.4005H55.2879V8.53166H50.1751V5.80143H53.6565Z" fill="#21A038"/>
<path d="M41.4569 8.29263H38.5559V5.80143H43.1969L45.6989 3.93264H36.1641V15.1283H41.148C43.9403 15.1283 45.553 13.8447 45.553 11.6096C45.553 9.46606 44.1033 8.29263 41.4569 8.29263ZM41.058 13.258H38.5559V10.1614H41.058C42.5807 10.1614 43.2869 10.6752 43.2869 11.7198C43.2869 12.7644 42.5263 13.258 41.058 13.258Z" fill="#21A038"/>
<path d="M62.9361 3.93264H58.3867V15.1283H60.7786V11.9573H62.9547C65.8541 11.9573 67.667 10.4191 67.667 7.94495C67.667 5.47082 65.8541 3.93264 62.9361 3.93264ZM62.8818 10.0885H60.7615V5.80143H62.8818C64.423 5.80143 65.2565 6.5713 65.2565 7.94495C65.2565 9.3186 64.423 10.0885 62.8818 10.0885Z" fill="#21A038"/>
<path d="M32.065 12.7085C31.4317 13.0577 30.7239 13.2409 29.9991 13.2409C27.8416 13.2409 26.2832 11.6825 26.2832 9.53901C26.2832 7.39549 27.8416 5.83712 29.9991 5.83712C30.7783 5.82005 31.5404 6.07616 32.1737 6.53404L33.8965 5.25196L33.7879 5.14176C32.7914 4.24306 31.4488 3.78518 29.9261 3.78518C28.2778 3.78518 26.7722 4.35327 25.6857 5.37924C24.5976 6.44246 23.9814 7.92632 24.0171 9.46606C23.9985 11.0229 24.5976 12.5253 25.6857 13.6243C26.8265 14.7061 28.3492 15.3115 29.9091 15.2742C31.6304 15.2742 33.1344 14.6689 34.1495 13.5699L32.6098 12.4151L32.065 12.7085Z" fill="#21A038"/>
<path d="M96.4369 3.95126V15.1454H98.8287V10.565H103.923V15.1454H106.316V3.95126H103.923V8.55029H98.8287V3.95126H96.4369ZM92.3221 15.1454H94.8413L90.1646 3.95126H87.7355L82.9689 15.1454H85.3793L86.3401 12.8917H91.4157L92.3221 15.1454ZM87.065 11.0229L88.9136 6.53404L90.6536 11.0229H87.065ZM111.682 10.6209H113.168L116.829 15.1283H119.91L115.016 9.33723L119.294 3.93264H116.557L113.005 8.73344H111.682V3.93264H109.289V15.1283H111.682V10.6209ZM75.0653 8.31126V5.82005H81.3189V3.95126H72.6719V15.1454H77.6574C80.4482 15.1454 82.0624 13.8633 82.0624 11.6282C82.0624 9.48469 80.6127 8.31126 77.9647 8.31126H75.0653ZM75.0653 13.2766V10.18H77.5674C79.0885 10.18 79.7963 10.6938 79.7963 11.7384C79.7963 12.783 79.0528 13.2952 77.5674 13.2952H75.0653V13.2766Z" fill="#21A038"/>
<path d="M16.532 3.85968C16.9666 4.42777 17.3298 5.05018 17.6371 5.70985L9.26327 11.9573L5.74609 9.72216V7.0478L9.24464 9.26428L16.532 3.85968Z" fill="#21A038"/>
<path d="M2.17493 9.53901C2.17493 9.41018 2.17493 9.30153 2.19355 9.1727L0.0733133 9.0625C0.0733133 9.20995 0.0546875 9.37448 0.0546875 9.52038C0.0546875 12.0861 1.08842 14.4128 2.75543 16.0984L4.25947 14.5773C2.97273 13.2952 2.17493 11.518 2.17493 9.53901Z" fill="url(#paint0_linear_57_8374)"/>
<path d="M9.24541 2.3929C9.37269 2.3929 9.48134 2.3929 9.60861 2.41153L9.71726 0.268004C9.57136 0.268004 9.40838 0.249378 9.26403 0.249378C6.72627 0.249378 4.42442 1.29398 2.75586 2.97961L4.25989 4.50072C5.52956 3.20002 7.30522 2.3929 9.24541 2.3929Z" fill="url(#paint1_linear_57_8374)"/>
<path d="M9.24529 16.6851C9.11802 16.6851 9.00936 16.6851 8.88209 16.6665L8.77344 18.81C8.91934 18.81 9.08232 18.8286 9.22667 18.8286C11.7644 18.8286 14.0678 17.784 15.7348 16.0984L14.2308 14.5773C12.9611 15.8966 11.2026 16.6851 9.24529 16.6851Z" fill="url(#paint2_linear_57_8374)"/>
<path d="M13.2316 3.63928L15.0259 2.30132C13.4489 1.01924 11.4373 0.230751 9.24414 0.230751V2.37427C10.7311 2.3929 12.1079 2.85078 13.2316 3.63928Z" fill="url(#paint3_linear_57_8374)"/>
<path d="M18.4535 9.53901C18.4535 8.97092 18.3991 8.42146 18.3076 7.872L16.3317 9.35586C16.3317 9.41018 16.3317 9.48468 16.3317 9.53901C16.3317 11.6468 15.4252 13.5342 13.9941 14.835L15.4252 16.429C17.2754 14.7434 18.4535 12.2692 18.4535 9.53901Z" fill="#21A038"/>
<path d="M9.24519 16.6851C7.16065 16.6851 5.29341 15.7693 4.00667 14.3212L2.42969 15.7693C4.11533 17.6568 6.54444 18.8286 9.24519 18.8286V16.6851Z" fill="url(#paint4_linear_57_8374)"/>
<path d="M4.51402 4.24307L3.08138 2.64901C1.21415 4.35327 0.0546875 6.80877 0.0546875 9.53901H2.17493C2.17493 7.44981 3.08138 5.54532 4.51402 4.24307Z" fill="url(#paint5_linear_57_8374)"/>
<defs>
<linearGradient id="paint0_linear_57_8374" x1="2.52933" y1="15.8378" x2="0.35176" y2="9.51482" gradientUnits="userSpaceOnUse">
<stop offset="0.1444" stop-color="#F2E913"/>
<stop offset="0.3037" stop-color="#E7E518"/>
<stop offset="0.5823" stop-color="#CADB26"/>
<stop offset="0.891" stop-color="#A3CD39"/>
</linearGradient>
<linearGradient id="paint1_linear_57_8374" x1="3.36063" y1="2.73764" x2="8.8626" y2="0.631429" gradientUnits="userSpaceOnUse">
<stop offset="0.0592" stop-color="#0FA8E0"/>
<stop offset="0.5385" stop-color="#0099F9"/>
<stop offset="0.9234" stop-color="#0291EB"/>
</linearGradient>
<linearGradient id="paint2_linear_57_8374" x1="8.64956" y1="17.0055" x2="15.2055" y2="15.5172" gradientUnits="userSpaceOnUse">
<stop offset="0.1226" stop-color="#A3CD39"/>
<stop offset="0.2846" stop-color="#86C339"/>
<stop offset="0.8693" stop-color="#21A038"/>
</linearGradient>
<linearGradient id="paint3_linear_57_8374" x1="8.80848" y1="1.59655" x2="14.2606" y2="3.28641" gradientUnits="userSpaceOnUse">
<stop offset="0.0566" stop-color="#0291EB"/>
<stop offset="0.79" stop-color="#0C8ACB"/>
</linearGradient>
<linearGradient id="paint4_linear_57_8374" x1="2.96883" y1="16.1084" x2="8.82633" y2="18.307" gradientUnits="userSpaceOnUse">
<stop offset="0.1324" stop-color="#F2E913"/>
<stop offset="0.2977" stop-color="#EBE716"/>
<stop offset="0.5306" stop-color="#D9E01F"/>
<stop offset="0.8023" stop-color="#BBD62D"/>
<stop offset="0.9829" stop-color="#A3CD39"/>
</linearGradient>
<linearGradient id="paint5_linear_57_8374" x1="1.67978" y1="9.79803" x2="4.03362" y2="3.64706" gradientUnits="userSpaceOnUse">
<stop offset="0.0698" stop-color="#A3CD39"/>
<stop offset="0.2599" stop-color="#81C55F"/>
<stop offset="0.9216" stop-color="#0FA8E0"/>
</linearGradient>
</defs>
</svg>

<svg width="120" height="19" fill="none" xmlns="http://www.w3.org/2000/svg"><path d="M53.657 5.801l2.5-1.868h-8.374v11.195h8.374v-1.87h-5.982v-2.857h5.113V8.53h-5.113V5.8h3.482zm-12.2 2.492h-2.901V5.8h4.64L45.7 3.933h-9.535v11.195h4.984c2.792 0 4.405-1.283 4.405-3.518 0-2.144-1.45-3.317-4.096-3.317zm-.399 4.965h-2.502v-3.097h2.502c1.523 0 2.229.514 2.229 1.559 0 1.044-.76 1.538-2.229 1.538zm21.878-9.325h-4.55v11.195h2.393v-3.17h2.176c2.9 0 4.712-1.539 4.712-4.013s-1.813-4.012-4.73-4.012zm-.054 6.155h-2.12V5.801h2.12c1.541 0 2.375.77 2.375 2.144s-.834 2.143-2.375 2.143zm-30.817 2.621a4.27 4.27 0 01-2.066.532c-2.157 0-3.716-1.559-3.716-3.702 0-2.144 1.559-3.702 3.716-3.702a3.592 3.592 0 012.175.697l1.723-1.282-.11-.11c-.996-.899-2.338-1.357-3.86-1.357-1.65 0-3.155.568-4.241 1.594a5.55 5.55 0 00-1.669 4.087 5.812 5.812 0 001.669 4.158c1.14 1.082 2.663 1.688 4.223 1.65 1.721 0 3.225-.605 4.24-1.704l-1.54-1.155-.544.294zm64.372-8.758v11.194h2.392v-4.58h5.094v4.58h2.393V3.951h-2.393v4.6h-5.094v-4.6h-2.392zm-4.115 11.194h2.52L90.164 3.951h-2.43L82.97 15.145h2.41l.961-2.253h5.076l.906 2.253zm-5.257-4.122l1.849-4.489 1.74 4.489h-3.589zm24.617-.402h1.486l3.661 4.507h3.081l-4.894-5.79 4.278-5.405h-2.737l-3.552 4.8h-1.323v-4.8h-2.393v11.195h2.393v-4.507zM75.065 8.31V5.82h6.254V3.95h-8.647v11.194h4.985c2.791 0 4.405-1.282 4.405-3.517 0-2.143-1.45-3.317-4.097-3.317h-2.9zm0 4.966V10.18h2.502c1.522 0 2.23.514 2.23 1.558 0 1.045-.744 1.557-2.23 1.557h-2.502v-.018zM16.532 3.86c.435.568.798 1.19 1.105 1.85l-8.374 6.247-3.517-2.235V7.048l3.499 2.216 7.287-5.404z" fill="#21A038"/><path d="M2.175 9.539c0-.129 0-.237.019-.366l-2.12-.11c0 .147-.02.311-.02.457a9.331 9.331 0 002.701 6.578l1.504-1.52a7.08 7.08 0 01-2.084-5.039z" fill="url(#paint0_linear_57_8374)"/><path d="M9.245 2.393c.128 0 .236 0 .364.019L9.717.268c-.146 0-.309-.019-.453-.019a9.134 9.134 0 00-6.508 2.73L4.26 4.502a6.965 6.965 0 014.985-2.108z" fill="url(#paint1_linear_57_8374)"/><path d="M9.245 16.685c-.127 0-.236 0-.363-.018l-.109 2.143c.146 0 .31.019.454.019a9.132 9.132 0 006.508-2.73l-1.504-1.522a6.862 6.862 0 01-4.986 2.108z" fill="url(#paint2_linear_57_8374)"/><path d="M13.232 3.64l1.794-1.34A9.149 9.149 0 009.244.231v2.143a7.07 7.07 0 013.988 1.265z" fill="url(#paint3_linear_57_8374)"/><path d="M18.453 9.539c0-.568-.054-1.118-.145-1.667l-1.976 1.484v.183a7.136 7.136 0 01-2.338 5.296l1.431 1.594a9.324 9.324 0 003.028-6.89z" fill="#21A038"/><path d="M9.245 16.685a6.988 6.988 0 01-5.238-2.364L2.43 15.77a9.102 9.102 0 006.815 3.06v-2.144z" fill="url(#paint4_linear_57_8374)"/><path d="M4.514 4.243L3.081 2.65A9.29 9.29 0 00.055 9.54h2.12c0-2.09.906-3.994 2.339-5.296z" fill="url(#paint5_linear_57_8374)"/><defs><linearGradient id="paint0_linear_57_8374" x1="2.529" y1="15.838" x2=".352" y2="9.515" gradientUnits="userSpaceOnUse"><stop offset=".144" stop-color="#F2E913"/><stop offset=".304" stop-color="#E7E518"/><stop offset=".582" stop-color="#CADB26"/><stop offset=".891" stop-color="#A3CD39"/></linearGradient><linearGradient id="paint1_linear_57_8374" x1="3.361" y1="2.738" x2="8.863" y2=".631" gradientUnits="userSpaceOnUse"><stop offset=".059" stop-color="#0FA8E0"/><stop offset=".538" stop-color="#0099F9"/><stop offset=".923" stop-color="#0291EB"/></linearGradient><linearGradient id="paint2_linear_57_8374" x1="8.65" y1="17.006" x2="15.206" y2="15.517" gradientUnits="userSpaceOnUse"><stop offset=".123" stop-color="#A3CD39"/><stop offset=".285" stop-color="#86C339"/><stop offset=".869" stop-color="#21A038"/></linearGradient><linearGradient id="paint3_linear_57_8374" x1="8.808" y1="1.597" x2="14.261" y2="3.286" gradientUnits="userSpaceOnUse"><stop offset=".057" stop-color="#0291EB"/><stop offset=".79" stop-color="#0C8ACB"/></linearGradient><linearGradient id="paint4_linear_57_8374" x1="2.969" y1="16.108" x2="8.826" y2="18.307" gradientUnits="userSpaceOnUse"><stop offset=".132" stop-color="#F2E913"/><stop offset=".298" stop-color="#EBE716"/><stop offset=".531" stop-color="#D9E01F"/><stop offset=".802" stop-color="#BBD62D"/><stop offset=".983" stop-color="#A3CD39"/></linearGradient><linearGradient id="paint5_linear_57_8374" x1="1.68" y1="9.798" x2="4.034" y2="3.647" gradientUnits="userSpaceOnUse"><stop offset=".07" stop-color="#A3CD39"/><stop offset=".26" stop-color="#81C55F"/><stop offset=".922" stop-color="#0FA8E0"/></linearGradient></defs></svg>
